X:177
T:Jenny of the Green. JJo8.177
%%VWML:JohnsonVol8-2184-p89-0
F:http://www.vwml.org/record/JohnsonVol8/2184/p89
Z:Transcribed by Simon Furey and Lewis Jones
Z:vmp.Simon Wilson 2013 www.village-music-project.org.uk
Z:Dance added by John Chambers 2017
M:2/4
L:1/16
%Q:1/4=100
K:Eb
|:\
((3EEE) GEBG e2 | ((3EEE) GE DFD[BB,] |\
((3EEE) GEBG e>g | ((3fed) ((3cB=A) B2B,2 :|
|:\
((3BBB) dBFB _a2 | ((3BBB) eBgB b2 |\
((3EEE) G>B ((3EEE) A>c | BAGF E2e2 :|
W:  Foot across and not turn .|
W:Cast off and turn Partners :|
W:foot across and not turn :||.
W:Right and Left :||:
W:
T:Sally's Taste. JJo8.178
B:J.Johnson Choice Collection Vol 8 1758
Z:vmp.Simon Wilson 2013 www.village-music-project.org.uk
Z:Dance added by John Chambers 2017
M:2/4
L:1/8
%Q:1/2=80
K:D
|:\
d2de/f/ | e2ef/g/ | fafd | ecBA |\
d2de/f/ | e2ef/g/ | fdec | d4 :|\
|:\
fgaf | bgfg | efge | afef |
defd | gfed | cdef | e2A2 |\
d2de/f/ | e2ef/g/ | fafd | ecBA |\
d2de/f/ | e2ef/g/ | fdec | d4 :|
W:  Cross over two Cu. .| Cross up
W:again :| Lead to the Bottom and cast
W:up and hands 4 round at Bottom :||.
W:Lead thro' the top and cast off and
W:Right and Left at top :||:
W:
